christmas.trees/img/svg/icon-inst.svg

<svg width="19" height="19" viewBox="0 0 19 19" fill="none" xmlns="http://www.w3.org/2000/svg">
<path d="M13.4808 0H5.5192C2.4759 0 0 2.4759 0 5.5192V13.4808C0 16.5241 2.4759 19 5.5192 19H13.4808C16.5241 19 19 16.5241 19 13.4808V5.5192C19 2.4759 16.5241 0 13.4808 0ZM17.5156 13.4808C17.5156 15.7056 15.7056 17.5156 13.4808 17.5156H5.5192C3.29438 17.5156 1.48438 15.7056 1.48438 13.4808V5.5192C1.48438 3.29438 3.29438 1.48438 5.5192 1.48438H13.4808C15.7056 1.48438 17.5156 3.29438 17.5156 5.5192V13.4808Z" fill="#e65252"/>
<path d="M9.5 4.37891C6.6762 4.37891 4.37891 6.6762 4.37891 9.5C4.37891 12.3238 6.6762 14.6211 9.5 14.6211C12.3238 14.6211 14.6211 12.3238 14.6211 9.5C14.6211 6.6762 12.3238 4.37891 9.5 4.37891ZM9.5 13.1367C7.49472 13.1367 5.86328 11.5053 5.86328 9.5C5.86328 7.49472 7.49472 5.86328 9.5 5.86328C11.5053 5.86328 13.1367 7.49472 13.1367 9.5C13.1367 11.5053 11.5053 13.1367 9.5 13.1367Z" fill="#e65252"/>
<path d="M14.6953 5.04688C15.1052 5.04688 15.4375 4.71459 15.4375 4.30469C15.4375 3.89479 15.1052 3.5625 14.6953 3.5625C14.2854 3.5625 13.9531 3.89479 13.9531 4.30469C13.9531 4.71459 14.2854 5.04688 14.6953 5.04688Z" fill="#e65252"/>
</svg>

<svg width="19" height="19" fill="none" xmlns="http://www.w3.org/2000/svg"><path d="M13.48 0H5.52A5.525 5.525 0 000 5.52v7.96A5.525 5.525 0 005.52 19h7.96A5.525 5.525 0 0019 13.48V5.52A5.525 5.525 0 0013.48 0zm4.036 13.48a4.04 4.04 0 01-4.035 4.036H5.519a4.04 4.04 0 01-4.035-4.035V5.519A4.04 4.04 0 015.52 1.484h7.962a4.04 4.04 0 014.035 4.035v7.962z" fill="#e65252"/><path d="M9.5 4.379A5.127 5.127 0 004.379 9.5 5.127 5.127 0 009.5 14.621 5.127 5.127 0 0014.621 9.5 5.127 5.127 0 009.5 4.379zm0 8.758A3.64 3.64 0 015.863 9.5 3.64 3.64 0 019.5 5.863 3.64 3.64 0 0113.137 9.5 3.64 3.64 0 019.5 13.137zm5.195-8.09a.742.742 0 100-1.485.742.742 0 000 1.485z" fill="#e65252"/></svg>
